src/assets/logo-01.svg

<svg width="95px" height="40px" viewBox="0 0 95 40" version="1.1" xmlns="http://www.w3.org/2000/svg" xmlns:xlink="http://www.w3.org/1999/xlink">
    <!-- Generator: Sketch 46.2 (44496) - http://www.bohemiancoding.com/sketch -->
    <desc>Created with Sketch.</desc>
    <defs></defs>
    <g id="Symbols" stroke="none" stroke-width="1" fill="none" fill-rule="evenodd">
        <g id="student-menu" transform="translate(-78.000000, -30.000000)" fill="#16D2AA">
            <g id="upchieve-logo" transform="translate(78.000000, 30.000000)">
                <path d="M20.0452228,37.1960988 C10.5058712,37.1960988 2.77292216,29.4879506 2.77292216,19.9798025 C2.77292216,10.4716543 10.5058712,2.76350617 20.0452228,2.76350617 C29.5850699,2.76350617 37.3180189,10.4716543 37.3180189,19.9798025 C37.3180189,29.4879506 29.5850699,37.1960988 20.0452228,37.1960988 M20.0452228,4.9382716e-05 C8.97444207,4.9382716e-05 -9.90895568e-05,8.94523457 -9.90895568e-05,19.9798025 C-9.90895568e-05,31.0143704 8.97444207,39.9595556 20.0452228,39.9595556 C31.1160035,39.9595556 40.0905447,31.0143704 40.0905447,19.9798025 C40.0905447,8.94523457 31.1160035,4.9382716e-05 20.0452228,4.9382716e-05" id="Fill-1"></path>
                <path d="M11.3811788,24.1441481 C11.9331076,24.8285926 12.6767747,25.170321 13.6111892,25.170321 C14.5456038,25.170321 15.2848119,24.8285926 15.8298044,24.1441481 C16.374797,23.4597037 16.6477887,22.5248889 16.6477887,21.3397037 L16.6477887,15.1535309 L19.9603526,13.1693333 L19.9603526,21.4453827 C19.9603526,23.5905679 19.3658153,25.2374815 18.1767406,26.3876049 C16.9871704,27.5377284 15.4651549,28.1125432 13.6111892,28.1125432 C11.7562327,28.1125432 10.2312445,27.5342716 9.03523351,26.3767407 C7.83872712,25.2201975 7.24072164,23.5762469 7.24072164,21.4453827 L7.24072164,15.1535309 L10.5532855,13.1693333 L10.5532855,21.3397037 C10.5532855,22.5248889 10.8292499,23.4597037 11.3811788,24.1441481" id="Fill-4"></path>
                <path d="M28.8578021,20.3131358 C29.2541603,19.8686914 29.4523394,19.2198025 29.4523394,18.3654815 C29.4523394,17.5121481 29.1942111,16.9052346 28.6774591,16.5457284 C28.1602116,16.1857284 27.3570907,16.0059753 26.2671056,16.0059753 L24.3769723,16.0059753 L24.3769723,20.9798025 L26.6069828,20.9798025 C27.7113359,20.9798025 28.4609484,20.7575802 28.8578021,20.3131358 M31.2894598,14.4923951 C32.3299002,15.3743704 32.8501203,16.7289383 32.8501203,18.5560988 C32.8501203,20.3837531 32.3160276,21.7205432 31.2463559,22.566963 C30.177675,23.4138765 28.5461654,23.8370864 26.3518272,23.8370864 L24.3769723,23.8370864 L24.3769723,25.9802963 L21.0649039,27.9644938 L21.0649039,13.1694321 L26.3092187,13.1694321 C28.5887739,13.1694321 30.2490195,13.6109136 31.2894598,14.4923951" id="Fill-6"></path>
                <path d="M51.4960004,20.2125926 L49.5052912,21.0061728 C49.1599641,19.7498765 48.3835974,19.1212346 47.1766866,19.1212346 C46.2873579,19.1212346 45.5971991,19.4259259 45.1067058,20.0338272 C44.6152216,20.642716 44.3694795,21.5019753 44.3694795,22.6130864 C44.3694795,23.7241975 44.6152216,24.577037 45.1067058,25.1720988 C45.5971991,25.7676543 46.2873579,26.0654321 47.1766866,26.0654321 C47.8529729,26.0654321 48.39747,25.9 48.8081962,25.5691358 C49.2199133,25.2387654 49.4924096,24.762716 49.6246941,24.1409877 L51.5752721,24.7958025 C51.2829579,25.7212346 50.7662058,26.445679 50.0220433,26.9681481 C49.2798625,27.4906173 48.3444571,27.751358 47.215827,27.751358 C45.6497166,27.751358 44.4259605,27.2950617 43.5440635,26.382963 C42.6611755,25.4698765 42.2197316,24.2071605 42.2197316,22.5933333 C42.2197316,20.9795062 42.6577074,19.7167901 43.5341545,18.8037037 C44.4096108,17.8916049 45.6239533,17.4348148 47.1766866,17.4348148 C49.3526933,17.4348148 50.7919691,18.3607407 51.4960004,20.2125926" id="Fill-8"></path>
                <path d="M60.5229104,18.3872593 C61.2185191,19.022321 61.5673143,19.9349136 61.5673143,21.125037 L61.5673143,27.5531852 L59.4383752,27.5531852 L59.4383752,21.7996049 C59.4383752,20.0539259 58.7279031,19.1808395 57.3079497,19.1808395 C56.5647781,19.1808395 55.9281277,19.4386173 55.3970076,19.9546667 C54.8663831,20.470716 54.600823,21.2573827 54.600823,22.3156543 L54.600823,27.5531852 L52.4713885,27.5531852 L52.4713885,13.1694815 L54.600823,13.1694815 L54.600823,19.2203457 C54.9327731,18.6124444 55.3737216,18.1625679 55.9246595,17.8712099 C56.475102,17.5808395 57.1087797,17.4351605 57.8256927,17.4351605 C58.9260822,17.4351605 59.8258154,17.7526914 60.5229104,18.3872593" id="Fill-10"></path>
                <path d="M62.961009,27.5531358 L65.0904435,27.5531358 L65.0904435,17.6336296 L62.961009,17.6336296 L62.961009,27.5531358 Z M62.9803314,15.6198025 C62.727653,15.3886914 62.6018093,15.061284 62.6018093,14.6375802 C62.6018093,14.2143704 62.727653,13.8904198 62.9803314,13.6657284 C63.2325143,13.441037 63.5847777,13.3284444 64.0356352,13.3284444 C64.4864927,13.3284444 64.8347925,13.441037 65.0805346,13.6657284 C65.3257812,13.8904198 65.4491477,14.2143704 65.4491477,14.6375802 C65.4491477,15.061284 65.3257812,15.3886914 65.0805346,15.6198025 C64.8347925,15.8514074 64.4864927,15.966963 64.0356352,15.966963 C63.5847777,15.966963 63.2325143,15.8514074 62.9803314,15.6198025 L62.9803314,15.6198025 Z" id="Fill-12"></path>
                <path d="M69.4787236,19.7959506 C69.0085437,20.2458272 68.7127614,20.9001481 68.5938539,21.7603951 L73.967976,21.7603951 C73.8614547,20.9268148 73.579545,20.2789136 73.1217512,19.8157037 C72.6644529,19.3529877 72.0694201,19.1213827 71.3406164,19.1213827 C70.5706906,19.1213827 69.9503899,19.3465679 69.4787236,19.7959506 M75.8784227,23.3870617 L68.5938539,23.3870617 C68.7127614,24.2601481 69.024398,24.9243457 69.5297548,25.380642 C70.0331297,25.8369383 70.6841481,26.0650864 71.4798372,26.0650864 C72.1303602,26.0650864 72.6703983,25.9495309 73.1019333,25.7184198 C73.5329729,25.4868148 73.8282597,25.1529877 73.9877939,24.7159506 L75.7595152,25.4502716 C75.0163435,26.9845926 73.5894539,27.7515062 71.4798372,27.7515062 C69.9142222,27.7515062 68.6894753,27.2952099 67.8070828,26.3826173 C66.9246903,25.4700247 66.4837418,24.2073086 66.4837418,22.5934815 C66.4837418,20.9668148 66.9078451,19.7001481 67.757538,18.7939753 C68.6067355,17.8882963 69.8007647,17.434963 71.3406164,17.434963 C72.8002056,17.434963 73.9337901,17.8784198 74.7438472,18.7643457 C75.5534089,19.6507654 75.9581898,20.8275556 75.9581898,22.2957037 C75.9581898,22.6794074 75.9314356,23.043358 75.8784227,23.3870617" id="Fill-14"></path>
                <polygon id="Fill-15" points="85.8115562 17.6334815 81.8499557 27.5529877 79.5213511 27.5529877 75.5404282 17.6334815 77.8883552 17.6334815 80.6955624 25.8270617 83.5810503 17.6334815"></polygon>
                <path d="M88.3889251,19.7959506 C87.9177543,20.2458272 87.6229628,20.9001481 87.5030645,21.7603951 L92.8781775,21.7603951 C92.7716562,20.9268148 92.4887555,20.2789136 92.0319527,19.8157037 C91.5741589,19.3529877 90.9796216,19.1213827 90.249827,19.1213827 C89.4799011,19.1213827 88.860096,19.3465679 88.3889251,19.7959506 M94.7881287,23.3870617 L87.5030645,23.3870617 C87.6229628,24.2601481 87.9341041,24.9243457 88.4389653,25.380642 C88.9428357,25.8369383 89.5938541,26.0650864 90.3895433,26.0650864 C91.0400662,26.0650864 91.5805997,25.9495309 92.0121348,25.7184198 C92.4426789,25.4868148 92.7379658,25.1529877 92.8975,24.7159506 L94.6687258,25.4502716 C93.9255541,26.9845926 92.4996554,27.7515062 90.3895433,27.7515062 C88.8239283,27.7515062 87.5996768,27.2952099 86.7172843,26.3826173 C85.8348918,25.4700247 85.3934478,24.2073086 85.3934478,22.5934815 C85.3934478,20.9668148 85.8180466,19.7001481 86.6672441,18.7939753 C87.516937,17.8882963 88.7099753,17.434963 90.249827,17.434963 C91.7094162,17.434963 92.8439916,17.8784198 93.6540487,18.7643457 C94.463115,19.6507654 94.8683912,20.8275556 94.8683912,22.2957037 C94.8683912,22.6794074 94.8411416,23.043358 94.7881287,23.3870617" id="Fill-16"></path>
            </g>
        </g>
    </g>
</svg>

<svg width="95" height="40" xmlns="http://www.w3.org/2000/svg">
  <g fill="#16D2AA" fill-rule="evenodd">
    <path d="M20.045 37.196c-9.54 0-17.272-7.708-17.272-17.216 0-9.508 7.733-17.216 17.272-17.216 9.54 0 17.273 7.708 17.273 17.216 0 9.508-7.733 17.216-17.273 17.216m0-37.196C8.975 0 0 8.945 0 19.98c0 11.034 8.974 19.98 20.045 19.98 11.071 0 20.046-8.946 20.046-19.98C40.09 8.945 31.116 0 20.045 0"/>
    <path d="M11.381 24.144c.552.685 1.296 1.026 2.23 1.026.935 0 1.674-.341 2.219-1.026.545-.684.818-1.62.818-2.804v-6.186l3.312-1.985v8.276c0 2.146-.594 3.792-1.783 4.943-1.19 1.15-2.712 1.725-4.566 1.725-1.855 0-3.38-.579-4.576-1.736-1.196-1.157-1.794-2.8-1.794-4.932v-6.291l3.312-1.985v8.17c0 1.186.276 2.12.828 2.805M28.858 20.313c.396-.444.594-1.093.594-1.948 0-.853-.258-1.46-.775-1.82-.517-.36-1.32-.539-2.41-.539h-1.89v4.974h2.23c1.104 0 1.854-.222 2.25-.667m2.432-5.82c1.04.881 1.561 2.236 1.561 4.063 0 1.828-.534 3.165-1.604 4.011-1.068.847-2.7 1.27-4.894 1.27h-1.975v2.143l-3.312 1.984V13.17h5.244c2.28 0 3.94.442 4.98 1.323M51.496 20.213l-1.99.793c-.346-1.256-1.122-1.885-2.33-1.885-.889 0-1.579.305-2.07.913-.49.609-.737 1.468-.737 2.58 0 1.11.246 1.963.738 2.558.49.596 1.18.893 2.07.893.676 0 1.22-.165 1.631-.496.412-.33.684-.806.817-1.428l1.95.655c-.292.925-.809 1.65-1.553 2.172-.742.523-1.678.783-2.806.783-1.566 0-2.79-.456-3.672-1.368-.883-.913-1.324-2.176-1.324-3.79 0-1.613.438-2.876 1.314-3.79.876-.911 2.09-1.368 3.643-1.368 2.176 0 3.615.926 4.319 2.778M60.523 18.387c.696.635 1.044 1.548 1.044 2.738v6.428h-2.129V21.8c0-1.746-.71-2.62-2.13-2.62-.743 0-1.38.259-1.911.775-.53.516-.796 1.302-.796 2.36v5.238h-2.13V13.17h2.13v6.051c.332-.608.773-1.057 1.324-1.349.55-.29 1.184-.436 1.9-.436 1.101 0 2 .318 2.698.952M62.961 27.553h2.13v-9.92h-2.13v9.92zm.02-11.933c-.253-.231-.38-.559-.38-.982 0-.424.127-.748.38-.972.252-.225.604-.338 1.055-.338.45 0 .799.113 1.045.338.245.224.368.548.368.972 0 .423-.123.75-.368.982-.246.231-.595.347-1.045.347-.451 0-.803-.116-1.056-.347zM69.479 19.796c-.47.45-.766 1.104-.885 1.964h5.374c-.107-.833-.388-1.481-.846-1.944-.458-.463-1.053-.695-1.781-.695-.77 0-1.39.226-1.862.675m6.4 3.591h-7.285c.119.873.43 1.537.936 1.994.503.456 1.154.684 1.95.684.65 0 1.19-.115 1.622-.347a1.82 1.82 0 0 0 .886-1.002l1.772.734c-.744 1.535-2.17 2.302-4.28 2.302-1.566 0-2.79-.457-3.673-1.37-.882-.912-1.323-2.175-1.323-3.789 0-1.626.424-2.893 1.274-3.799.849-.906 2.043-1.359 3.583-1.359 1.46 0 2.593.443 3.403 1.33.81.886 1.214 2.063 1.214 3.53 0 .384-.027.748-.08 1.092M85.812 17.633l-3.962 9.92h-2.329l-3.98-9.92h2.347l2.808 8.194 2.885-8.194zM88.389 19.796c-.471.45-.766 1.104-.886 1.964h5.375c-.106-.833-.39-1.481-.846-1.944-.458-.463-1.052-.695-1.782-.695-.77 0-1.39.226-1.861.675m6.4 3.591h-7.286c.12.873.431 1.537.936 1.994.504.456 1.155.684 1.95.684.651 0 1.192-.115 1.623-.347.43-.231.726-.565.885-1.002l1.772.734c-.743 1.535-2.17 2.302-4.28 2.302-1.565 0-2.79-.457-3.672-1.37-.882-.912-1.324-2.175-1.324-3.789 0-1.626.425-2.893 1.274-3.799.85-.906 2.043-1.359 3.583-1.359 1.46 0 2.594.443 3.404 1.33.81.886 1.214 2.063 1.214 3.53 0 .384-.027.748-.08 1.092"/>
  </g>
</svg>
